!!!COM: Palestrina, Giovanni Perluigi da
!!!OPR: Inviolata
!!!OTL: Kyrie
**kern	**kern	**kern	**kern
*Ibass	*Itenor	*Icalto	*Icant
!Bassus	!Tenor	!Altus	!Cantus
*clefF4	*clefGv2	*clefG2	*clefG2
*k[b-]	*k[b-]	*k[b-]	*k[b-]
*F:ion	*F:ion	*F:ion	*F:ion
*M4/2	*M4/2	*M4/2	*M4/2
=1	=1	=1	=1
0r	1F	0r	0r
.	2F	.	.
.	2F	.	.
=2	=2	=2	=2
0r	1G	0r	0r
.	1A	.	.
=3	=3	=3	=3
0r	1B-	0r	1f
.	2A	.	2f
.	[2B-	.	2f
=4	=4	=4	=4
0r	2B-]	0r	1g
.	4A	.	.
.	4G	.	.
.	2F	.	1a
.	2A	.	.
=5	=5	=5	=5
0r	4G	0r	1b-
.	4A	.	.
.	4B-	.	.
.	4c	.	.
.	1d	.	2a
.	.	.	[2b-
=6	=6	=6	=6
1r	2B-	0r	2b-]
.	2c	.	4a
.	.	.	4g
1BB-	4d	.	2f
.	4c	.	.
.	4B-	.	[2g
.	4A	.	.
=7	=7	=7	=7
2BB-	1B-	0r	2g]
2BB-	.	.	1f
1C	1G	.	.
.	.	.	2e
=8	=8	=8	=8
1D	1F	1r	1f
1E-	2r	1B-	1r
.	2G	.	.
=9	=9	=9	=9
2D	2F	2B-	0r
1E-	1G	2B-	.
.	.	1c	.
4D	2A	.	.
4C	.	.	.
=10	=10	=10	=10
1BB-	1B-	1.d	1f
1D	2A	.	2f
.	2F	[2f	2f
=11	=11	=11	=11
1C	1c	2f]	1g
.	.	2e	.
1r	1F	1f	1a
=12	=12	=12	=12
1G	2r	0d	1b-
.	2G	.	.
2F	2A	.	2a
[2G	2G	.	[2b-
=13	=13	=13	=13
2G]	2B-	1G	2b-]
4F	2c	.	4a
4E	.	.	4g
1D	1d	2A	1f
.	.	2B-	.
=14	=14	=14	=14
1F	1c	2A	1a
.	.	2F	.
2E	1r	[1c	2g
[2F	.	.	[2a
=15	=15	=15	=15
2F]	1F	1c]	2a]
4E	.	.	4g
4D	.	.	4f
1C	2G	2r	1e
.	[2A	[2c	.
=16	=16	=16	=16
1D	2A]	2c]	1f
.	4G	2B	.
.	4F	.	.
2C	2G	4c	2e
.	.	4B-	.
[2D	2F	4A	[2f
.	.	4G	.
=17	=17	=17	=17
2D]	2A	2F	2f]
4C	1c	2G	4e
4BB-	.	.	4d
1AA	.	1A	2c
.	2c	.	2e
=18	=18	=18	=18
1BB-	2.B-	1d	2g
.	.	.	1f
.	4A	.	.
1C	1G	1c	.
.	.	.	2e
=19	=19	=19	=19
2FF	1F	1A	[0f
2F	.	.	.
2D	2r	1d	.
2BB-	2B-	.	.
=20	=20	=20	=20
2F	2A	2c	1f]
2BB-	1B-	1d	.
1BB-	.	.	1r
.	4A	4c	.
.	4G	4B-	.
=21	=21	=21	=21
2r	1F	2.A	1a
2F	.	.	.
.	.	4B-	.
2E	2G	1c	2g
[2F	2F	.	[2a
=22	=22	=22	=22
2F]	1c	1F	2a]
4E	.	.	4g
4D	.	.	4f
1C	2r	2G	1e
.	[2c	[2A	.
=23	=23	=23	=23
1D	2c]	2A]	1f
.	2B	4G	.
.	.	4F	.
2C	4c	2G	2e
.	4B-	.	.
[2D	4A	4F	[2f
.	4G	4G	.
=24	=24	=24	=24
2D]	2F	4A	2f]
.	.	4B-	.
4C	2G	1c	4e
4BB-	.	.	4d
1AA	2A	.	2c
.	2c	2A	2e
=25	=25	=25	=25
1BB-	2.B-	1d	2g
.	.	.	1f
.	4A	.	.
1C	1G	1c	.
.	.	.	2e
=26	=26	=26	=26
0FF	0F	0c	0f
=27	=27	=27	=27
0r	0r	0B-	0r
=28	=28	=28	=28
0r	0r	1d	0r
.	.	1e-	.
=29	=29	=29	=29
0r	0r	2.d	0f
.	.	4c	.
.	.	4d	.
.	.	4e	.
.	.	[2f	.
=30	=30	=30	=30
0r	0r	4f]	1a
.	.	4e	.
.	.	1d	.
.	.	.	1b-
.	.	4c	.
.	.	4B-	.
=31	=31	=31	=31
0F	0r	1c	2.a
.	.	.	4g
.	.	1A	4a
.	.	.	4b-
.	.	.	[2cc
=32	=32	=32	=32
1A	0r	1c	4cc]
.	.	.	4b-
.	.	.	1a
1B-	.	1d	.
.	.	.	2g
=33	=33	=33	=33
2.A	0F	1c	1a
4G	.	.	.
4F	.	1A	2r
4E	.	.	.
[2D	.	.	2f
=34	=34	=34	=34
2D]	1A	0r	2f
2C	.	.	2e
1BB-	1B-	.	4d
.	.	.	4e
.	.	.	4f
.	.	.	4g
=35	=35	=35	=35
1.F	2.A	0c	1.a
.	4G	.	.
.	4A	.	.
.	4B-	.	.
4E	[2c	.	2g
4D	.	.	.
=36	=36	=36	=36
2C	4c]	1e	1g
.	4B-	.	.
2E	2G	.	.
1D	2A	1f	1r
.	2B	.	.
=37	=37	=37	=37
1C	2.c	1e	2r
.	.	.	1cc
.	4B-	.	.
1r	4A	1f	.
.	4G	.	.
.	2F	.	2a
=38	=38	=38	=38
0r	2G	2d	2b
.	2c	2e	2.cc
.	1F	2.f	.
.	.	.	4b-
.	.	.	4a
.	.	4e	4g
=39	=39	=39	=39
1r	0r	4d	2a
.	.	4c	.
.	.	2d	2.b-
1F	.	2c	.
.	.	.	4a
.	.	2A	[2a
=40	=40	=40	=40
2D	1r	1B-	2a]
2E	.	.	2g
2.F	2r	2A	[1a
.	[2A	[2f	.
4E	.	.	.
=41	=41	=41	=41
4D	2A]	2f]	1a]
4C	.	.	.
2D	2F	2d	.
2C	2G	2e	1r
2AA	[2A	[2f	.
=42	=42	=42	=42
1BB-	2A]	2f]	1r
.	2G	4e	.
.	.	4d	.
1AA	1A	4c	2r
.	.	4d	.
.	.	4e	2cc
.	.	4c	.
=43	=43	=43	=43
1r	2F	1d	2a
.	2G	.	2b
2r	1A	[1c	2.cc
[2F	.	.	.
.	.	.	4b-
=44	=44	=44	=44
2F]	1r	1c]	4a
.	.	.	4g
2F	.	.	2a
2E	1c	1r	2g
2C	.	.	2e
=45	=45	=45	=45
1D	2A	1F	1f
.	2B	.	.
[1AA	2.c	2.A	[1e
.	4B-	4B-	.
=46	=46	=46	=46
1AA]	4A	2.c	1e]
.	4G	.	.
.	2A	.	.
.	.	4d	.
1C	2G	4e	2r
.	.	4f	.
.	2E	[2g	2cc
=47	=47	=47	=47
1D	1F	4g]	2a
.	.	4f	.
.	.	2.f	2b
1C	1G	.	2.cc
.	.	4e	.
.	.	[2e	.
.	.	.	4b-
=48	=48	=48	=48
1F	2A	4e]	4a
.	.	4d	4g
.	2F	2.d	2a
2E	2G	.	2g
.	.	4c	.
2C	2A	[2c	2e
=49	=49	=49	=49
0D	0F	2c]	0f
.	.	4B	.
.	.	4A	.
.	.	1B	.
=50	=50	=50	=50
0C	0G	0c	0e
=51	=51	=51	=51
2.AA	0A	0r	0r
4BB-	.	.	.
2C	.	.	.
[2D	.	.	.
=52	=52	=52	=52
4D]	1A	0r	0r
4C	.	.	.
2AA	.	.	.
2BB-	1G	.	.
2C	.	.	.
=53	=53	=53	=53
2D	1F	0r	0r
1F	.	.	.
.	1G	.	.
2E	.	.	.
=54	=54	=54	=54
2.F	0F	2.A	0a
4G	.	4B-	.
2A	.	2c	.
[2D	.	[2d	.
=55	=55	=55	=55
4D]	0r	4d]	1a
4E	.	4c	.
2F	.	2A	.
2G	.	2B-	1g
2E	.	2c	.
=56	=56	=56	=56
1D	0r	2d	1f
.	.	1f	.
1C	.	.	1g
.	.	2e	.
=57	=57	=57	=57
2.F	0A	2f	1.f
.	.	2c	.
4E	.	.	.
2D	.	1d	.
4C	.	.	4e
4BB-	.	.	4d
=58	=58	=58	=58
2.AA	1A	0c	4e
.	.	.	4c
.	.	.	1f
4BB-	.	.	.
1C	1G	.	.
.	.	.	2e
=59	=59	=59	=59
1D	1F	2r	1f
.	.	2f	.
1C	[1G	2e	2r
.	.	2c	2cc
=60	=60	=60	=60
1r	1G]	1d	2b-
.	.	.	2g
2r	1F	1f	1a
2F	.	.	.
=61	=61	=61	=61
2A	0r	2e	1cc
2A	.	2c	.
1G	.	2.d	2b-
.	.	.	2g
.	.	4c	.
=62	=62	=62	=62
2.F	0r	4A	2.a
.	.	4B-	.
.	.	2.c	.
8E	.	.	4g
8D	.	.	.
1C	.	.	4e
.	.	4B-	4f
.	.	4G	2g
.	.	4A	.
=63	=63	=63	=63
0r	2r	4B-	2f
.	.	4c	.
.	2B-	2.d	2d
.	2A	.	2e
.	.	4c	.
.	2F	[2c	2f
=64	=64	=64	=64
1r	1G	2c]	1d
.	.	2B	.
2r	1A	1c	[1c
2F	.	.	.
=65	=65	=65	=65
2E	2G	1r	1c]
2C	2c	.	.
2.D	2B-	1f	1r
.	[2A	.	.
4C	.	.	.
=66	=66	=66	=66
4AA	4A]	2e	0r
4BB-	4G	.	.
2C	2E	2c	.
2BB-	2F	1d	.
2GG	[2G	.	.
=67	=67	=67	=67
1AA	4G]	2c	1cc
.	4F	.	.
.	1F	2A	.
1GG	.	1B-	2b-
.	2E	.	2g
=68	=68	=68	=68
1D	2F	2A	1a
.	2f	2F	.
1C	2e	2.G	1cc
.	2c	.	.
.	.	4A	.
=69	=69	=69	=69
1G	2.d	1B-	2b-
.	.	.	2g
.	4c	.	.
2.F	4A	[1c	2.a
.	4B-	.	.
.	[2c	.	.
4E	.	.	4g
=70	=70	=70	=70
2C	4c]	1c]	4e
.	4B-	.	4f
2E-	2G	.	2.g
2D	2A	1d	.
.	.	.	4f
2BB-	2B-	.	[2f
=71	=71	=71	=71
1C	1G	1c	2f]
.	.	.	2e
1r	1d	1B-	[1f
=72	=72	=72	=72
1F	2c	2A	1f]
.	2.d	2F	.
2E	.	1G	1r
.	4c	.	.
2C	[2c	.	.
=73	=73	=73	=73
1D	2c]	2F	1r
.	2B	2f	.
1C	1c	2e	2r
.	.	2c	2cc
=74	=74	=74	=74
1G	1r	1d	2b-
.	.	.	2g
2F	1f	2A	1a
2D	.	2d	.
=75	=75	=75	=75
1A	2e	2c	1cc
.	2c	2A	.
1G	2.d	1B-	2b-
.	.	.	2g
.	4c	.	.
=76	=76	=76	=76
1F	4A	0c	2.a
.	4B-	.	.
.	2.c	.	.
.	.	.	4g
2C	.	.	4e
.	4B-	.	4f
2E-	2G	.	[2g
=77	=77	=77	=77
2D	2A	1d	4g]
.	.	.	4f
2BB-	2B-	.	1f
1C	1G	1c	.
.	.	.	2e
=78	=78	=78	=78
[0FF	[0F	[0A	[0f
=79	=79	=79	=79
0FF]	0F]	0A]	0f]
==	==	==	==
*-	*-	*-	*-
!!!CDT: 1525/^1526/-1594/2/2
!!!OCY: Italia
!!!AGN: Mass (Parody)
!!!AST: renaissance, vocal
!!!ASW: Motet 1532 (Courtois)
!!!PWK: Masses, Book 2
!!!RNB: Cadence finals: C
!!!YOR: Le Opere Complete, v. 4, p. 26
!!!YOO: Rome, Italy: Fratelli Scalera
!!!END: 1992//
!!!EED: John Miller
!!!YEC: Copyright 2000, John Miller
!!!YEN: United States of America
!!!YEM: Rights to all derivative electronic formats reserved.
!!!YEM: Refer to licensing agreement for further details.
!!!YEM: This file must be accompanied by the licensing agreement.
!!!YEM: A copy of the licensing agreement may be found at http://www.music-cog.ohio-state.edu/HumdrumDatabases/Palestrina/license.txt
!!!EMD: converted to Humdrum by Bret Aarden
